assets/images/advice-white.svg

<svg width="18" height="19" viewBox="0 0 18 19" fill="none" xmlns="http://www.w3.org/2000/svg">
<path d="M9 0.959961C4.038 0.959961 0 4.99796 0 9.95996C0 11.462 0.378 12.946 1.094 14.26L0.392 17.31C0.33 17.58 0.41 17.86 0.606 18.056C0.802 18.252 1.082 18.332 1.352 18.27L4.248 17.602C5.674 18.49 7.312 18.96 9 18.96C13.962 18.96 18 14.922 18 9.95996C18 4.99796 13.962 0.959961 9 0.959961ZM9 18.16C7.41 18.16 5.868 17.702 4.538 16.838C4.472 16.796 4.396 16.774 4.32 16.774C4.29 16.774 4.26 16.778 4.23 16.784L1.172 17.49L1.91 14.292C1.932 14.194 1.918 14.092 1.868 14.004C1.168 12.774 0.8 11.376 0.8 9.95996C0.8 5.43796 4.478 1.75996 9 1.75996C13.522 1.75996 17.2 5.43796 17.2 9.95996C17.2 14.482 13.522 18.16 9 18.16ZM13.2 7.55996C13.2 7.77996 13.02 7.95996 12.8 7.95996H5.2C4.98 7.95996 4.8 7.77996 4.8 7.55996C4.8 7.33996 4.98 7.15996 5.2 7.15996H12.8C13.02 7.15996 13.2 7.33996 13.2 7.55996ZM13.2 9.95996C13.2 10.18 13.02 10.36 12.8 10.36H5.2C4.98 10.36 4.8 10.18 4.8 9.95996C4.8 9.73996 4.98 9.55996 5.2 9.55996H12.8C13.02 9.55996 13.2 9.73996 13.2 9.95996ZM13.2 12.36C13.2 12.58 13.02 12.76 12.8 12.76H5.2C4.98 12.76 4.8 12.58 4.8 12.36C4.8 12.14 4.98 11.96 5.2 11.96H12.8C13.02 11.96 13.2 12.14 13.2 12.36Z" fill="white"/>
</svg>

<svg width="18" height="19" fill="none" xmlns="http://www.w3.org/2000/svg"><path d="M9 .96c-4.962 0-9 4.038-9 9 0 1.502.378 2.986 1.094 4.3l-.702 3.05a.798.798 0 00.96.96l2.896-.668A8.968 8.968 0 009 18.96c4.962 0 9-4.038 9-9s-4.038-9-9-9zm0 17.2a8.17 8.17 0 01-4.462-1.322.407.407 0 00-.308-.054l-3.058.706.738-3.198a.402.402 0 00-.042-.288A8.187 8.187 0 01.8 9.96c0-4.522 3.678-8.2 8.2-8.2 4.522 0 8.2 3.678 8.2 8.2 0 4.522-3.678 8.2-8.2 8.2zm4.2-10.6c0 .22-.18.4-.4.4H5.2c-.22 0-.4-.18-.4-.4 0-.22.18-.4.4-.4h7.6c.22 0 .4.18.4.4zm0 2.4c0 .22-.18.4-.4.4H5.2c-.22 0-.4-.18-.4-.4 0-.22.18-.4.4-.4h7.6c.22 0 .4.18.4.4zm0 2.4c0 .22-.18.4-.4.4H5.2c-.22 0-.4-.18-.4-.4 0-.22.18-.4.4-.4h7.6c.22 0 .4.18.4.4z" fill="#fff"/></svg>
